X: 43196
T: Wishing Well, The
R: jig
M: 6/8
K: Dmajor
F|DFA d2e|fdB BAF|d2B BAF|B/c/dB BAF|
DFA d2e|fdB BAF|BAF dBA|fac d2:|
|:B|Adf ~a3|baf afd|~f2g afd|Bdg bge|
Adf ~a3|baf afd|b2a afd|Ace d2:|
|:e|fdd ceA|d2g fdB|c2B ceA|~a3 bag|
~f2d ecA|d2g fdA|FAD GBD|Aec d2:|

